svg/emoji_u1f507.svg

<?xml version="1.0" encoding="UTF-8" standalone="no"?>
<svg
   xmlns:dc="http://purl.org/dc/elements/1.1/"
   xmlns:cc="http://creativecommons.org/ns#"
   xmlns:rdf="http://www.w3.org/1999/02/22-rdf-syntax-ns#"
   xmlns:svg="http://www.w3.org/2000/svg"
   xmlns="http://www.w3.org/2000/svg"
   xmlns:sodipodi="http://sodipodi.sourceforge.net/DTD/sodipodi-0.dtd"
   xmlns:inkscape="http://www.inkscape.org/namespaces/inkscape"
   width="128"
   height="128"
   style="enable-background:new 0 0 128 128;"
   version="1.1"
   id="svg14"
   sodipodi:docname="emoji_u1f507.svg"
   inkscape:version="0.92.2 (5c3e80d, 2017-08-06)">
  <metadata
     id="metadata20">
    <rdf:RDF>
      <cc:Work
         rdf:about="">
        <dc:format>image/svg+xml</dc:format>
        <dc:type
           rdf:resource="http://purl.org/dc/dcmitype/StillImage" />
      </cc:Work>
    </rdf:RDF>
  </metadata>
  <defs
     id="defs18" />
  <sodipodi:namedview
     pagecolor="#ffffff"
     bordercolor="#666666"
     borderopacity="1"
     objecttolerance="10"
     gridtolerance="10"
     guidetolerance="10"
     inkscape:pageopacity="0"
     inkscape:pageshadow="2"
     inkscape:window-width="1920"
     inkscape:window-height="1046"
     id="namedview16"
     showgrid="false"
     inkscape:zoom="1.84375"
     inkscape:cx="-119.10794"
     inkscape:cy="6.5388588"
     inkscape:window-x="-11"
     inkscape:window-y="-11"
     inkscape:window-maximized="1"
     inkscape:current-layer="svg14" />
  <path
     d="M64,3.69C30.69,3.69,3.69,30.69,3.69,64c0,33.31,27.01,60.32,60.32,60.32 c33.31,0,60.31-27,60.31-60.32C124.31,30.69,97.32,3.69,64,3.69z"
     style="fill:#006CA2;"
     id="path2" />
  <path
     d="M64,128C28.71,128,0,99.29,0,64C0,28.71,28.71,0,64,0s64,28.71,64,64C128,99.29,99.29,128,64,128z M64,10.89c-29.29,0-53.11,23.83-53.11,53.11c0,29.29,23.83,53.11,53.11,53.11S117.11,93.29,117.11,64 C117.11,34.71,93.29,10.89,64,10.89z"
     style="fill:#DB4437;"
     id="path10" />
  <path
     style="opacity:1;vector-effect:none;fill:#ffffff;fill-opacity:1;stroke:#ffffff;stroke-width:2.847;stroke-linecap:round;stroke-linejoin:round;stroke-miterlimit:4;stroke-dasharray:none;stroke-dashoffset:0;stroke-opacity:1;paint-order:stroke fill markers"
     d="M 83.859375 22.0625 L 83.769531 22.123047 A 12.331361 42.033856 0 0 1 83.855469 22.109375 L 83.859375 22.0625 z M 80.738281 24.234375 L 43.626953 50.060547 L 30.972656 50.060547 L 30.972656 77.939453 L 43.626953 77.939453 L 80.761719 103.7832 A 12.331361 42.033856 0 0 1 72.365234 64 A 12.331361 42.033856 0 0 1 80.738281 24.234375 z M 83.849609 105.93164 L 83.859375 105.9375 L 83.859375 105.93359 A 12.331361 42.033856 0 0 1 83.849609 105.93164 z "
     id="rect821" />
  <path
     style="opacity:1;vector-effect:none;fill:#ffffff;fill-opacity:1;stroke:#ffffff;stroke-width:2.7;stroke-linecap:round;stroke-linejoin:round;stroke-miterlimit:4;stroke-dasharray:none;stroke-dashoffset:0;stroke-opacity:1;paint-order:normal"
     d="M 84.695312 26.783203 C 84.513666 26.937197 84.199428 27.223957 83.716797 27.919922 C 82.693591 29.395407 81.463249 32.091119 80.4375 35.587891 C 79.123484 40.067364 78.094128 45.863553 77.519531 52.398438 A 6.2444494 12.258209 0 0 1 81.771484 64 A 6.2444494 12.258209 0 0 1 77.519531 75.605469 C 78.094196 82.138788 79.12374 87.933509 80.4375 92.412109 C 81.463249 95.90888 82.693545 98.604589 83.716797 100.08008 C 84.199428 100.77604 84.513666 101.0628 84.695312 101.2168 C 84.876696 101.06303 85.191227 100.77582 85.673828 100.08008 C 86.69697 98.605059 87.927247 95.910837 88.953125 92.414062 C 91.00488 85.420519 92.376941 75.238946 92.376953 64 C 92.376941 52.761053 91.00488 42.579481 88.953125 35.585938 C 87.927247 32.089165 86.69697 29.394937 85.673828 27.919922 C 85.191227 27.224178 84.876696 26.936972 84.695312 26.783203 z "
     id="path823" />
  <polygon
     points="111.73,102.59 103.3,111 17,25.27 25.43,16.86 "
     style="fill:#DB4437;"
     id="polygon12" />
</svg>

<svg xmlns="http://www.w3.org/2000/svg" width="128" height="128"><path d="M64 3.69c-33.31 0-60.31 27-60.31 60.31s27.01 60.32 60.32 60.32 60.31-27 60.31-60.32c-.01-33.31-27-60.31-60.32-60.31z" fill="#006ca2"/><path d="M64 128C28.71 128 0 99.29 0 64S28.71 0 64 0s64 28.71 64 64-28.71 64-64 64zm0-117.11c-29.29 0-53.11 23.83-53.11 53.11 0 29.29 23.83 53.11 53.11 53.11S117.11 93.29 117.11 64 93.29 10.89 64 10.89z" fill="#db4437"/><path d="M83.86 22.063l-.09.06a12.331 42.034 0 0 1 .085-.014l.004-.047zm-3.122 2.171L43.627 50.061H30.973v27.878h12.654l37.135 25.844A12.331 42.034 0 0 1 72.365 64a12.331 42.034 0 0 1 8.373-39.766zm3.112 81.698l.01.005v-.003a12.331 42.034 0 0 1-.01-.002z" fill="#fff" stroke="#fff" stroke-width="2.847" stroke-linecap="round" stroke-linejoin="round" paint-order="stroke fill markers"/><path d="M84.695 26.783c-.181.154-.496.441-.978 1.137-1.023 1.475-2.254 4.171-3.28 7.668-1.314 4.48-2.343 10.276-2.917 16.81A6.244 12.258 0 0 1 81.77 64a6.244 12.258 0 0 1-4.251 11.605c.574 6.534 1.604 12.329 2.918 16.807 1.025 3.497 2.256 6.193 3.279 7.668.482.696.797.983.978 1.137.182-.154.496-.441.979-1.137 1.023-1.475 2.253-4.17 3.28-7.666 2.05-6.993 3.423-17.175 3.423-28.414s-1.372-21.42-3.424-28.414c-1.026-3.497-2.256-6.191-3.28-7.666-.482-.696-.796-.983-.978-1.137z" fill="#fff" stroke="#fff" stroke-width="2.7" stroke-linecap="round" stroke-linejoin="round"/><path fill="#db4437" d="M111.73 102.59L103.3 111 17 25.27l8.43-8.41z"/></svg>
